assets/symbols/mulberry/arrow_keys.svg

<svg height="850.394" viewBox="0 0 850.394 850.394" width="850.394" xmlns="http://www.w3.org/2000/svg"><path d="m782.58 458.51v171.24c0 5.45-4.41 9.87-9.85 9.87h-184.8c-5.439 0-9.859-4.42-9.859-9.87v-171.24c0-5.45 4.42-9.87 9.859-9.87h184.8c5.44 0 9.85 4.42 9.85 9.87zm-268.69-.34v176.7c0 5.2-4.22 9.42-9.43 9.42h-163.73c-5.22 0-9.43-4.22-9.43-9.42v-176.7c0-5.21 4.21-9.43 9.43-9.43h163.73c5.21 0 9.43 4.22 9.43 9.43zm1.8-276.28v176.7c0 5.2-4.221 9.42-9.44 9.42h-163.73c-5.21 0-9.43-4.22-9.43-9.42v-176.7c0-5.21 4.22-9.43 9.43-9.43h163.73c5.22 0 9.44 4.22 9.44 9.43zm-245.6 276.03v171.23c0 5.46-4.41 9.869-9.86 9.869h-184.8c-5.44 0-9.85-4.409-9.85-9.869v-171.23c0-5.45 4.41-9.87 9.85-9.87h184.8c5.45 0 9.86 4.41 9.86 9.87z" fill="#c8c8c8"/><g fill="none"><g stroke="#231f20" stroke-width="21"><path d="m515.69 358.59c0 5.2-4.221 9.42-9.44 9.42h-163.73c-5.21 0-9.43-4.22-9.43-9.42v-176.7c0-5.21 4.22-9.43 9.43-9.43h163.73c5.22 0 9.44 4.22 9.44 9.43zm-92.32-11.8v-136.4"/><path d="m380.81 256.54 42.72-47.04 42.7 47.12m-134.93 201.55c0-5.21 4.21-9.43 9.43-9.43h163.73c5.21 0 9.43 4.22 9.43 9.43v176.7c0 5.2-4.22 9.42-9.43 9.42h-163.73c-5.22 0-9.43-4.22-9.43-9.42zm92.31 11.79v136.4"/><path d="m466.17 560.22-42.72 47.03-42.69-47.11m207.17 79.48c-5.439 0-9.859-4.42-9.859-9.87v-171.24c0-5.45 4.42-9.87 9.859-9.87h184.8c5.439 0 9.85 4.42 9.85 9.87v171.24c0 5.45-4.41 9.87-9.85 9.87zm12.34-96.56h142.65"/><path d="m694.66 498.56 49.19 44.68-49.28 44.64m-434.34 51.14c5.45 0 9.86-4.409 9.86-9.869v-171.231c0-5.46-4.41-9.87-9.86-9.87h-184.8c-5.44 0-9.85 4.42-9.85 9.87v171.23c0 5.46 4.41 9.869 9.85 9.869h184.8zm-12.33-96.55h-142.66"/><path d="m153.5 497.97-49.19 44.68 49.28 44.64"/></g><path d="m0 0h850.394v850.394h-850.394z"/></g></svg>

<svg xmlns="http://www.w3.org/2000/svg" width="850.394" height="850.394" viewBox="0 0 850.394 850.394" overflow="visible"><g fill="#c8c8c8"><path d="M782.58 458.51v171.24c0 5.45-4.41 9.87-9.85 9.87h-184.8c-5.439 0-9.859-4.42-9.859-9.87V458.51c0-5.45 4.42-9.87 9.859-9.87h184.8c5.44 0 9.85 4.42 9.85 9.87zM513.89 458.17v176.7c0 5.2-4.22 9.42-9.43 9.42H340.73c-5.22 0-9.43-4.22-9.43-9.42v-176.7c0-5.21 4.21-9.43 9.43-9.43h163.73c5.21 0 9.43 4.22 9.43 9.43zM515.69 181.89v176.7c0 5.2-4.221 9.42-9.44 9.42H342.52c-5.21 0-9.43-4.22-9.43-9.42v-176.7c0-5.21 4.22-9.43 9.43-9.43h163.73c5.22 0 9.44 4.22 9.44 9.43zM270.09 457.92v171.23c0 5.46-4.41 9.869-9.86 9.869H75.43c-5.44 0-9.85-4.409-9.85-9.869V457.92c0-5.45 4.41-9.87 9.85-9.87h184.8c5.45 0 9.86 4.41 9.86 9.87z"/></g><g fill="none" stroke="#231f20" stroke-width="21"><path d="M515.69 358.59c0 5.2-4.221 9.42-9.44 9.42H342.52c-5.21 0-9.43-4.22-9.43-9.42v-176.7c0-5.21 4.22-9.43 9.43-9.43h163.73c5.22 0 9.44 4.22 9.44 9.43v176.7zM423.37 346.79v-136.4"/><path d="M380.81 256.54l42.72-47.04 42.7 47.12M331.3 458.17c0-5.21 4.21-9.43 9.43-9.43h163.73c5.21 0 9.43 4.22 9.43 9.43v176.7c0 5.2-4.22 9.42-9.43 9.42H340.73c-5.22 0-9.43-4.22-9.43-9.42v-176.7zM423.61 469.96v136.4"/><path d="M466.17 560.22l-42.72 47.03-42.69-47.11M587.93 639.62c-5.439 0-9.859-4.42-9.859-9.87V458.51c0-5.45 4.42-9.87 9.859-9.87h184.8c5.439 0 9.85 4.42 9.85 9.87v171.24c0 5.45-4.41 9.87-9.85 9.87h-184.8zM600.27 543.06h142.65"/><path d="M694.66 498.56l49.19 44.68-49.28 44.64M260.23 639.02c5.45 0 9.86-4.409 9.86-9.869V457.92c0-5.46-4.41-9.87-9.86-9.87H75.43c-5.44 0-9.85 4.42-9.85 9.87v171.23c0 5.46 4.41 9.869 9.85 9.869h184.8zM247.9 542.47H105.24"/><path d="M153.5 497.97l-49.19 44.68 49.28 44.64"/></g><path fill="none" d="M0 0h850.394v850.394H0z"/></svg>
